X:349
%%etbk:tnset id:174,pos:1,rep:3x,ant:
%%etbk:wsite http://www.trad.katesplacedoolin.com/tunes/comingofspring.html
%%etbk:color #ffffcc
%%etbk:pldat 2015-07-17T16:35,2015-01-19T19:37,2014-12-27T15:05,2014-12-14T15:58,2014-12-08T18:27,2014-12-07T09:55,2014-12-06T16:47,2014-11-19T16:15,2014-05-08T19:14,2014-03-21T16:44,2014-02-16T16:19,2014-02-12T18:48,2013-11-16T14:56,2013-10-23T18:32,2013-10-21T17:47,2013-10-20T14:11,2013-10-02T16:28,2013-09-15T16:43,2013-08-29T15:55,2013-08-27T18:03,2013-08-26T18:09,2013-05-23T18:49,2013-05-21T17:50,2013-05-18T13:30,2013-05-14T18:07,2013-05-12T18:18,2013-05-07T19:04
T:Coming Of Spring, The
Z: Piano Box Version by Martin Fleischmann
H: Created 2013-02-19 /  Last Modified 2015-07-17
R:Jig
M:6/8
C:Paddy O'Brien
K:Edor
|: "em"!2!B!1!EE !2!B2!1!A | !2!BdB !2!B!1!A!3!G | "bm"!2!F!1!EF !1!D!2!F!1!A | !3!d!5!fe !3!d!2!B!1!A |
"em"!2!B!1!EE !2!B2A | !2!B!5!e!3!f !4!gfe | "bm"!1!d!2!B!1!A !2!F!3!GA |1 "em"!5!B!3!G!1!E E2A:|2 "em"!5!B!3!G!1!E E2F||
|: "G"!3!GEF !3!G2!4!A | !2!B2A !2!B!5!e!3!c | "D"!4!d!1!AA !2!B!1!A!3!G | !2!FAF !1!D!1!E!2!F|
"em"!3!GEF !3!G2!4!A | !2!B!5!e!3!f !4!gfe | "bm"!1!d!2!B!1!A !2!F!3!GA|1 "em"!5!B!1!EE E2F:|2 "em"!5!B!1!EE E2!3!f||
|: "em"!4!g2!2!e ege | !1!B!2!e!3!g !5!b!4!a!3!g | "D"!2!f2!1!d !1!d!2!c!3!d | !1!AAA !3!d!4!e!3!f |
|1 "em"!4!g2!2!e ege | !1!B!2!e!3!g !5!b!4!a!3!g | "bm"!2!f!1!e!1!d !2!faf | "em"!3!g!1!ee !1!e2!3!f:|
|2 "em"!4!g2!2!e !3!fed | !2!B!5!e!3!c !4!d!5!f!4!e | "bm"!3!d!2!B!1!A !2!F!3!GA | "em"!5!B!3!G!1!E E3||


